packages/radix-icons/twoTone/15/border.svg

<svg width="15" height="15" fill="none" xmlns="http://www.w3.org/2000/svg">
  <path
    d="M2.75 3.25C2.75 2.97386 2.97386 2.75 3.25 2.75H11.75C12.0261 2.75 12.25 2.97386 12.25 3.25V11.75C12.25 12.0261 12.0261 12.25 11.75 12.25H3.25C2.97386 12.25 2.75 12.0261 2.75 11.75V3.25Z"
    fill="currentColor"
    opacity=".2"
  />
  <path
    fill-rule="evenodd"
    clip-rule="evenodd"
    d="M2 3.25C2 2.55964 2.55964 2 3.25 2H11.75C12.4404 2 13 2.55964 13 3.25V11.75C13 12.4404 12.4404 13 11.75 13H3.25C2.55964 13 2 12.4404 2 11.75V3.25ZM3.5 3.5V11.5H11.5V3.5H3.5Z"
    fill="currentColor"
  />
</svg>

<svg width="15" height="15" fill="none" xmlns="http://www.w3.org/2000/svg">
  <path
    d="M2.75 3.25a.5.5 0 01.5-.5h8.5a.5.5 0 01.5.5v8.5a.5.5 0 01-.5.5h-8.5a.5.5 0 01-.5-.5v-8.5z"
    fill="currentColor"
    opacity=".2"
  />
  <path
    fill-rule="evenodd"
    clip-rule="evenodd"
    d="M2 3.25C2 2.56 2.56 2 3.25 2h8.5c.69 0 1.25.56 1.25 1.25v8.5c0 .69-.56 1.25-1.25 1.25h-8.5C2.56 13 2 12.44 2 11.75v-8.5zm1.5.25v8h8v-8h-8z"
    fill="currentColor"
  />
</svg>
